!!!COM: Franz Liszt
!!!OTL: Vier kleine Klavierstücke, No.1
**kern	**dynam	**kern	**dynam
*part2	*part2	*part1	*part1
*staff2	*	*staff1	*
*clefF4	*	*clefG2	*
*k[f#c#g#d#]	*	*k[f#c#g#d#]	*
*M3/4	*	*M3/4	*
!	!	!LO:TX:a:iB:t=Adagio	!
*^	*	*	*
8r	2.CCn	.	8r	pp
(>8F#y'L	.	.	(<8A'L 8d#y'	.
8A	.	.	8cn' 8f#y'	.
8cn'	.	.	8d#y' 8a'	.
8d#y'	.	.	8f#y' 8ccn'	.
8f#yJ)	.	.	8a'J) 8dd#y'	.
*v	*v	*	*	*
=2	=2	=2	=2
(<4a	.	(>4ccn 4ff#y	.
2f#y)	.	2dd#y) 2aa	.
=3	=3	=3	=3
*^	*	*	*
8r	2.BBB	.	8r	.
8A'L	.	.	(<8cn'L 8f#y'	.
8F#y' 8cn'	.	.	8d#y' 8a'	.
8A 8d#y	.	.	8f#y' 8ccn'	.
8cn' 8f#y'	.	.	8a' 8dd#y'	.
8d#y'J 8a'	.	.	8ccJ) 8ff#y	.
*v	*v	*	*	*
=4	=4	=4	=4
(<4f#y 4ccn	.	(>4dd#y 4aa	pp
2d#y) 2a	.	2ff#y) 2cccn	.
=5	=5	=5	=5
4r	.	4r	.
4r	.	4r	.
=	=	=	=
4r	.	4ccn	mf
!!LO:LB
=6	=6	=6	=6
4r	pp	(>2ccn	>
4E~ 4G#y~ 4dn~	.	.	.
4r	.	12b)	]
.	.	12r	.
.	.	12e	.
=7	=7	=7	=7
*	*	*^	*
4r	pp	4b	4r	.
8AA 8E 8A	.	4a	8cn 8e	.
8r	.	.	8r	.
4r	.	8r	4r	.
.	.	8g#y	.	.
*	*	*v	*v	*
=8	=8	=8	=8
4r	pp	(<2g#y	.
4BB~ 4D#y~ 4A~	.	.	.
4r	.	12f#y)	.
.	.	12r	.
.	.	12B	.
=9	=9	=9	=9
*	*	*^	*
4r	.	(>4f#y	4r	.
8EE 8E	.	8e)	8G#y 8B	.
8r	.	8r	4r	.
4r	.	8r	.	.
.	.	8r	8b	.
*	*	*v	*v	*
=10	=10	=10	=10
4r	.	(>2ccn	.
4E~ 4G#y~ 4dn~	.	.	.
4r	.	12b)	.
.	.	12r	.
.	.	12e	.
=11	=11	=11	=11
*	*	*^	*
4r	.	(>2a	4r	.
[4C#y [4B	.	.	[4c#y [4e#y	.
8C#y] 8B]	.	4g#y)	8c#y] 8e#y]	.
8r	.	.	8r	.
!!LO:LB
=12	=12	=12	=12	=12
4r	.	[4g#y	4r	.
4FF#y	.	8g#yL]	4A#y 4c#y 4en	.
.	.	8f#yJ	.	.
[4BB	.	12e#yL	[4An [4d#y	.
.	.	12f#y	.	.
.	.	12g#yJ	.	.
*	*	*v	*v	*
=13	=13	=13	=13
2EE 2BB]	.	4A] 4d#y] 4f#y	.
.	.	4G#y 4en	.
4r	.	8r	.
.	.	(>8b 8bb	.
=14	=14	=14	=14
4r	.	2ccn 2cccn	.
(>4dn 4e 4g#y	.	.	.
8E')	.	12b) 12bb	.
.	.	12r	.
8r	.	.	.
.	.	12ee	.
=15	=15	=15	=15
4r	.	(>4b 4bb	.
(>4cn 4e	.	8a) 8aa	.
.	.	8r	.
8A')	.	8r	.
8r	.	8g#y 8gg#y	.
=16	=16	=16	=16
4r	.	(>2g#y 2gg#y	.
(>4A 4B 4d#y	.	.	.
8BB')	.	12f#y) 12ff#y	.
.	.	12r	.
8r	.	.	.
.	.	12b	.
=17	=17	=17	=17
4r	.	(>4f#y 4ff#y	.
(>4G#y 4B	.	8e) 8ee	.
.	.	8r	.
8E')	.	8r	.
8r	.	8b 8bb	.
!!LO:LB
=18	=18	=18	=18
4r	.	(>2ccn 2cccn	.
(>4dn 4e 4g#y	.	.	.
8E')	.	12b) 12bb	.
.	.	12r	.
8r	.	.	.
.	.	12ee	.
=19	=19	=19	=19
4r	.	(>2a 2aa	.
(>4B 4c#y 4e#y	.	.	.
8C#y')	.	4g#y) 4gg#y	.
8r	.	.	.
=20	=20	=20	=20
4r	.	(>4.g#y 4.gg#y	.
(>4F#y 4A#y 4en	.	.	.
.	.	8f#y 8ff#y	.
8BB) 8An 8d#y	.	12e#yL 12ee#y	.
.	.	12f#y 12ff#y	.
8r	.	.	.
.	.	12g#yJ) 12gg#y	.
=21	=21	=21	=21
*^	*	*	*
!!Error: measure 22, staff 2 is underfilled: adding token 4ryy at end of measure to complete its duration.
(>4.A 4.cn	4r	.	(>2.f#y 2.ff#y	>
.	2E	.	.	.
8G#y) 8B	.	.	.	.
4ryy	.	.	.	.
*v	*v	*	*	*
=22	=22	=22	=22
4r	.	4e) 4ee	]
4r	.	4r	.
4EE	.	4r	.
=23	=23	=23	=23
2EE	.	4r	.
.	.	2G 2c 2e	.
4GG	.	.	.
=24	=24	=24	=24
4AA	.	4r	.
4C	.	(<4G' 4A' 4c'	.
4D	.	4F') 4A' 4c'	.
=25	=25	=25	=25
(>2EE	.	4r	.
.	.	2G 2c 2g	.
4GG	.	.	.
=26	=26	=26	=26
4AA	.	4r	.
4C	.	(<4G' 4A' 4e'	.
4D)	.	4F') 4A' 4f'	.
=27	=27	=27	=27
(>2EE 2E	.	4r	.
.	.	2c 2e 2g 2cc	.
4GG 4G	.	.	.
=28	=28	=28	=28
4AA 4A	.	4r	.
4C 4c	.	(<4A' 4e' 4g' 4a'	.
4D) 4d	.	4A') 4f' 4a'	.
=29	=29	=29	=29
(>2EE^^ 2E^^	.	4r	.
.	.	2e 2g 2cc 2ee	.
4GG 4G	.	.	.
=30	=30	=30	=30
4AA 4A	.	4r	.
4C^) 4c^	.	4e^ 4f#y^ 4a^ 4dd#y^	.
4C#y^ 4c#y^	.	4e^ 4a^ 4ee^	.
!!LO:LB
=31	=31	=31	=31
*	*	*^	*
8BBB^^ 8BB^^	.	4gg#y^^	2.a 2.cc#y	ff
4F#y~ 4A~ 4e~	.	.	.	.
.	.	(>8ff#y~L	.	.
4A~ 4c#y~ 4f#y~	.	8ee~	.	.
.	.	8dd#y~	.	.
*clefG2	*	*	*	*
8c#y 8e 8f#y 8a	.	8cc#y~J)	.	.
*	*	*v	*v	*
=32	=32	=32	=32
*^	*	*	*
8cc#y^L	4d#y 4f#y	.	4gg#y^^ 4ggg#y^^	ff
8bJ	.	.	.	.
*v	*v	*	*	*
4r	.	(>8ff#y~L 8fff#y~	.
.	.	8ee~ 8eee~	.
4r	.	8dd#y~ 8ddd#y~	.
.	.	8cc#y~J) 8ccc#y~	.
=33	=33	=33	=33
*	*	*^	*
8BBB 8BB	.	4gg#y^^	2.a 2.cc#y	ff
4F#y~ 4A~ 4c#y~ 4e~	.	.	.	.
.	.	(>8ff#y~L	.	.
4A~ 4c#y~ 4e~ 4f#y~	.	8ee~	.	.
.	.	8dd#y~	.	.
8c#y 8e 8f#y 8a	.	8cc#y~J)	.	.
*	*	*v	*v	*
=34	=34	=34	=34
*^	*	*	*
(>8cc#yL	4d#y 4f#y 4a	.	(>4gg#y^ 4ggg#y^	.
8bJ)	.	.	.	.
*v	*v	*	*	*
4r	.	8ff#y~L 8fff#y~	.
.	.	8ee~ 8eee~	.
4r	.	8dd#y~ 8ddd#y~	.
.	.	8ccc#y~J	.
=35	=35	=35	=35
2.r	.	8cccn~L	.
.	.	8bb~	.
.	.	8aa#y~	.
.	.	8aan~	.
.	.	8gg#y~	.
.	.	8ff#y~J	.
!!LO:LB
=36	=36	=36	=36
2.r	.	8ee#y~L	>
.	.	8een~	.
.	.	8dd#y~	.
.	.	8ddn~	.
.	.	8cc#y~	.
.	.	8ccn~J)	]
=37	=37	=37	=37
4r	.	(>2ccn^	mf
4E~ 4G#y~ 4dn~	.	.	.
4r	.	12b)	.
.	.	12r	.
.	.	12e	.
=38	=38	=38	=38
*	*	*^	*
4r	.	(>4b	4r	.
8AA 8E 8A	.	4a)	8cn 8e	.
8r	.	.	8r	.
*	*	*v	*v	*
4r	.	8r	.
.	.	8g#y	.
=39	=39	=39	=39
4r	.	(<2g#y	.
4BB 4D#y 4A	.	.	.
4r	.	12f#y)	.
.	.	12r	.
.	.	12B	.
=40	=40	=40	=40
*	*	*^	*
4r	.	(>4f#y	4r	.
8EE 8E	.	8e)	8G#y 8B	.
*	*	*v	*v	*
8r	.	8r	.
4r	.	8r	.
.	.	8b	.
=41	=41	=41	=41
4r	.	(>2ccn	.
4E 4G#y 4dn	.	.	.
4r	.	12b)	.
.	.	12r	.
.	.	12e	.
!!LO:LB
=42	=42	=42	=42
*	*	*^	*
4r	.	[2a	4r	>
4Dn [4B	.	.	[4e#y	.
8C#y 8B]	.	8aL]	8e#y]	.
8r	.	8g#yJ	8r	]
=43	=43	=43	=43	=43
4r	.	[4g#y	4r	.
4FF#y	.	8g#yL]	4A#y 4c#y 4en	.
.	.	8f#yJ	.	.
4BB	.	12e#yL	4An 4d#y	.
.	.	12f#y	.	.
.	.	12g#yJ	.	.
*	*	*v	*v	*
=44	=44	=44	=44
*^	*	*	*
2Cn	[2.EE	.	(<2.A 2.d#y 2.f#y	.
[4BB	.	.	.	.
*v	*v	*	*	*
=45	=45	=45	=45
4EE] 4BB]	.	4G#y) 4e	.
4r	.	4r	.
4r	.	4r	.
==	==	==	==
*-	*-	*-	*-
!!!RDF**kern: > = above
!!!RDF**kern: < = below
